assets/symbols/mulberry/bath_mat.svg

<svg height="850.394" viewBox="0 0 850.394 850.394" width="850.394" xmlns="http://www.w3.org/2000/svg"><g fill="#f0947d"><path d="m694.53 246.4c27.89 12.44 47.33 40.41 47.33 72.92v213.43c0 44.07-35.73 79.8-79.811 79.8h-469.159c-44.07 0-79.8-35.729-79.8-79.8v-213.43c0-35.06 22.6-64.84 54.03-75.56a79.853 79.853 0 0 1 25.77-4.25h469.16c11.57 0 22.56 2.46 32.48 6.89zm14.19 265.95v-176.17c0-36.38-32.029-65.88-71.55-65.88h-420.57c-39.51 0-71.54 29.5-71.54 65.88v176.17c0 36.381 32.03 65.881 71.54 65.881h420.57c39.52-.001 71.55-29.501 71.55-65.881z"/><path d="m708.72 336.18v176.17c0 36.381-32.029 65.881-71.55 65.881h-420.57c-39.51 0-71.54-29.5-71.54-65.881v-176.17c0-36.38 32.03-65.88 71.54-65.88h420.57c39.52 0 71.55 29.5 71.55 65.88z"/></g><g fill="none"><g stroke="#231f20" stroke-width="21"><path d="m85.18 255 31.04 21.87m-1.39-41.06 7.24 37.28m14.13-51.12 30.92 21.79m-1.27-40.97 7.25 37.28m-10.59 410.1 9.34-36.82m-37.86 15.97 32.24-20.08m-52.8 5.06 9.35-36.82m-37.86 15.98 32.23-20.09m651.46 21.83-32.54-19.57m4.36 40.86-9.92-36.66m-10.41 52-32.54-19.58m4.35 40.86-9.92-36.66m84.95-351.59-37.31 7.06m18.27-36.81-22.03 30.94m-.63-41.31-30.71 21.66m1.06-40.84-7.24 37.28m-615.94 329.27 35.23-14.17m-35.23-21.15 35.23 14.18m-35.34-46.32 35.23-14.17m-35.23-21.14 35.23 14.17m-35.23-39.63 35.23-14.18m-35.23-21.14 35.23 14.17m-35.3-43.16 35.22-14.19m-35.22-21.14 35.22 14.19m-35.22-39.65 35.22-14.17m-35.22-21.14 35.22 14.17m674.75-15.99-35.22 14.18m35.22 21.14-35.22-14.18m35.33 46.32-35.22 14.17m35.22 21.14-35.22-14.17m35.22 39.63-35.22 14.17m35.22 21.15-35.22-14.18m35.29 43.17-35.22 14.19m35.22 21.14-35.22-14.19m35.22 39.65-35.22 14.17m35.22 21.14-35.22-14.17m-83.51 97.11-14.17-35.23m-21.15 35.23 14.18-35.23m-39.64 35.23-14.18-35.23m-21.14 35.23 14.18-35.23m-43.17 35.3-14.18-35.23m-21.14 35.23 14.18-35.23m-39.64 35.23-14.18-35.23m-21.14 35.23 14.17-35.23m-46.31 35.34-14.17-35.23m-21.15 35.23 14.18-35.23m-39.64 35.23-14.17-35.23m-21.14 35.23 14.17-35.23m-43.17 35.3-14.18-35.22m-21.15 35.22 14.19-35.22m-39.64 35.22-14.18-35.22m-21.14 35.22 14.17-35.22m246.09-414.08 14.17 35.22m21.14-35.22-14.17 35.22m39.63-35.22 14.18 35.22m21.14-35.22-14.17 35.22m43.17-35.3 14.18 35.23m21.14-35.23-14.18 35.23m39.64-35.23 14.17 35.23m21.15-35.23-14.18 35.23m-460.34-34.97 14.15 35.15m21.17-35.15-14.15 35.15m39.61-35.15 14.15 35.15m21.17-35.15-14.15 35.15m43.15-35.22 14.17 35.22m21.15-35.22-14.18 35.22m39.63-35.22 14.18 35.22m21.14-35.22-14.17 35.22" stroke-linecap="round" stroke-linejoin="round"/><path d="m694.53 246.4c27.89 12.44 47.33 40.41 47.33 72.92v213.43c0 44.07-35.73 79.8-79.811 79.8h-469.159c-44.07 0-79.8-35.729-79.8-79.8v-213.43c0-35.06 22.6-64.84 54.03-75.56a79.853 79.853 0 0 1 25.77-4.25h469.16c11.57 0 22.56 2.46 32.48 6.89z"/><path d="m708.72 512.35c0 36.381-32.029 65.881-71.55 65.881h-420.57c-39.51 0-71.54-29.5-71.54-65.881v-176.17c0-36.38 32.03-65.88 71.54-65.88h420.57c39.521 0 71.55 29.5 71.55 65.88z"/></g><path d="m0 0h850.394v850.394h-850.394z"/></g></svg>

<svg xmlns="http://www.w3.org/2000/svg" width="850.394" height="850.394" viewBox="0 0 850.394 850.394" overflow="visible"><g fill="#f0947d"><path d="M694.53 246.4c27.89 12.44 47.33 40.41 47.33 72.92v213.43c0 44.07-35.73 79.8-79.811 79.8H192.89c-44.07 0-79.8-35.729-79.8-79.8V319.32c0-35.06 22.6-64.84 54.03-75.56a79.853 79.853 0 0 1 25.77-4.25h469.16c11.57 0 22.56 2.46 32.48 6.89zm14.19 265.95V336.18c0-36.38-32.029-65.88-71.55-65.88H216.6c-39.51 0-71.54 29.5-71.54 65.88v176.17c0 36.381 32.03 65.881 71.54 65.881h420.57c39.52-.001 71.55-29.501 71.55-65.881z"/><path d="M708.72 336.18v176.17c0 36.381-32.029 65.881-71.55 65.881H216.6c-39.51 0-71.54-29.5-71.54-65.881V336.18c0-36.38 32.03-65.88 71.54-65.88h420.57c39.52 0 71.55 29.5 71.55 65.88z"/></g><g fill="none" stroke="#231f20" stroke-width="21"><path stroke-linecap="round" stroke-linejoin="round" d="M85.18 255l31.04 21.87M114.83 235.81l7.24 37.28M136.2 221.97l30.92 21.79M165.85 202.79l7.25 37.28M162.51 650.17l9.34-36.82M133.99 629.32l32.24-20.08M113.43 614.3l9.35-36.82M84.92 593.46l32.23-20.09M768.61 595.2l-32.54-19.57M740.43 616.49l-9.92-36.66M720.1 631.83l-32.54-19.58M691.91 653.11l-9.92-36.66M766.94 264.86l-37.31 7.06M747.9 235.11l-22.03 30.94M725.24 224.74l-30.71 21.66M695.59 205.56l-7.24 37.28M72.41 572.11l35.23-14.17M72.41 536.79l35.23 14.18M72.3 504.65l35.23-14.17M72.3 469.34l35.23 14.17M72.3 443.88l35.23-14.18M72.3 408.56l35.23 14.17M72.23 379.57l35.22-14.19M72.23 344.24l35.22 14.19M72.23 318.78l35.22-14.17M72.23 283.47l35.22 14.17M782.2 281.65l-35.22 14.18M782.2 316.97l-35.22-14.18M782.31 349.11l-35.22 14.17M782.31 384.42l-35.22-14.17M782.31 409.88l-35.22 14.17M782.31 445.2l-35.22-14.18M782.38 474.19l-35.22 14.19M782.38 509.52l-35.22-14.19M782.38 534.98l-35.22 14.17M782.38 570.29l-35.22-14.17M663.65 653.23L649.48 618M628.33 653.23L642.51 618M602.87 653.23L588.69 618M567.55 653.23L581.73 618M538.56 653.3l-14.18-35.23M503.24 653.3l14.18-35.23M477.78 653.3l-14.18-35.23M442.46 653.3l14.17-35.23M410.32 653.41l-14.17-35.23M375 653.41l14.18-35.23M349.54 653.41l-14.17-35.23M314.23 653.41l14.17-35.23M285.23 653.48l-14.18-35.22M249.9 653.48l14.19-35.22M224.45 653.48l-14.18-35.22M189.13 653.48l14.17-35.22M449.39 204.18l14.17 35.22M484.7 204.18l-14.17 35.22M510.16 204.18l14.18 35.22M545.48 204.18l-14.17 35.22M574.48 204.1l14.18 35.23M609.8 204.1l-14.18 35.23M635.26 204.1l14.17 35.23M670.58 204.1l-14.18 35.23M196.06 204.36l14.15 35.15M231.38 204.36l-14.15 35.15M256.84 204.36l14.15 35.15M292.16 204.36l-14.15 35.15M321.16 204.29l14.17 35.22M356.48 204.29l-14.18 35.22M381.93 204.29l14.18 35.22M417.25 204.29l-14.17 35.22"/><path d="M694.53 246.4c27.89 12.44 47.33 40.41 47.33 72.92v213.43c0 44.07-35.73 79.8-79.811 79.8H192.89c-44.07 0-79.8-35.729-79.8-79.8V319.32c0-35.06 22.6-64.84 54.03-75.56a79.853 79.853 0 0 1 25.77-4.25h469.16c11.57 0 22.56 2.46 32.48 6.89z"/><path d="M708.72 512.35c0 36.381-32.029 65.881-71.55 65.881H216.6c-39.51 0-71.54-29.5-71.54-65.881V336.18c0-36.38 32.03-65.88 71.54-65.88h420.57c39.521 0 71.55 29.5 71.55 65.88v176.17z"/></g><path fill="none" d="M0 0h850.394v850.394H0z"/></svg>
